src/assets/filled/Filter.svg

<svg width="24" height="24" viewBox="0 0 24 24"  xmlns="http://www.w3.org/2000/svg">
<path d="M20.5999 4.09961V6.29961C20.5999 7.09961 20.0999 8.09961 19.5999 8.59961L15.2999 12.3996C14.6999 12.8996 14.2999 13.8996 14.2999 14.6996V18.9996C14.2999 19.5996 13.8999 20.3996 13.3999 20.6996L11.9999 21.5996C10.6999 22.3996 8.89988 21.4996 8.89988 19.8996V14.5996C8.89988 13.8996 8.49989 12.9996 8.09989 12.4996L7.62989 12.0096C7.31989 11.6796 7.25989 11.1796 7.50989 10.7896L12.6299 2.56961C12.8099 2.27961 13.1299 2.09961 13.4799 2.09961H18.5999C19.6999 2.09961 20.5999 2.99961 20.5999 4.09961Z" />
<path d="M10.3499 3.62961L6.7999 9.31961C6.4599 9.86961 5.6799 9.94961 5.2299 9.47961L4.2999 8.49961C3.7999 7.99961 3.3999 7.09961 3.3999 6.49961V4.19961C3.3999 2.99961 4.2999 2.09961 5.3999 2.09961H9.4999C10.2799 2.09961 10.7599 2.95961 10.3499 3.62961Z" />
</svg>

<?xml version="1.0" encoding="UTF-8"?>
<svg width="24" height="24" viewBox="0 0 24 24" xmlns="http://www.w3.org/2000/svg">
 <path d="m20.6 4.0996v2.2c0 0.8-0.5 1.8-1 2.3l-4.3 3.8c-0.6 0.5-1 1.5-1 2.3v4.3c0 0.6-0.4 1.4-0.9 1.7l-1.4 0.9c-1.3 0.8-3.1-0.1-3.1-1.7v-5.3c0-0.7-0.39999-1.6-0.79999-2.1l-0.47-0.49c-0.31-0.33-0.37-0.83-0.12-1.22l5.12-8.22c0.18-0.29 0.5-0.47 0.85-0.47h5.12c1.1 0 2 0.9 2 2z"/>
 <path d="m10.35 3.6296-3.55 5.69c-0.34 0.55-1.12 0.63-1.57 0.16l-0.93-0.98c-0.5-0.5-0.9-1.4-0.9-2v-2.3c0-1.2 0.9-2.1 2-2.1h4.1c0.78 0 1.26 0.86 0.85 1.53z"/>
</svg>
